public/images/logos/trojan.svg

<?xml version="1.0" encoding="UTF-8"?>
<svg id="Layer_1" data-name="Layer 1" xmlns="http://www.w3.org/2000/svg" viewBox="0 0 730 250">
  <defs>
    <style>
      .cls-1 {
        fill: #9A9A9A;
        stroke-width: 0px;
      }
    </style>
  </defs>
  <path class="cls-1" d="m332.15,24.93c-38.18-19.82-92.78-14.59-136.79,3.65-1.22.49-4.74,12.04-5.84,12.52l4.26-21.16c2.07-10.34-6.08-19.94-16.9-19.94H2.14C-.41,0,.32,1.95.44,2.19c2.43,5.84,17.39,23.47,52.77,26.99.24.61-6.44,1.09-10.94,1.22-.61,0-1.09.73-.73,1.22,4.86,7.3,21.04,19.94,50.71,21.89.24.49-7.3,1.22-11.19,1.34-.61,0-.97.61-.73,1.22,4.01,7.3,13.98,18.12,37.69,21.52.24,0,.12.24-.12.24-5.84.12-10.94-.24-15.44-.97-.24,0-.36,0-.61.12-14.11,9.48-26.39,18.73-32.71,24.2-2.19,1.95-1.58,4.38,1.46,4.74l17.51,1.95c1.22.12,1.58,1.7.61,2.43C49.32,139.11,14.06,185.19.32,205.37c-1.09,1.58.85,3.53,2.55,2.55,47.54-27.12,70.53-36.11,116.25-53.5,2.43-.85,2.19-4.13-.36-4.5l-11.79-2.43c-1.58-.24-2.07-2.19-.73-3.04,65.42-41.1,139.47-39.64,144.09-34.65.49.49.61,1.34.24,1.95-4.99,10.46-18.24,25.05-18.24,25.05l-9.48.49c-.97,0-1.82.73-2.07,1.7-2.8,11.43,0,16.42,1.82,18.97.73.97,1.95,1.09,2.92.36,8.15-5.96,11.19-9.85,11.19-9.85l41.1-31.49c1.46-1.22,1.95-2.68,1.34-4.26-8.63-23.95-40.98-40.25-40.98-40.25,13.13-18.24,37.94-20.55,43.41-18.48,10.7,3.89,24.2,42.92,24.2,42.92.36,1.09,1.09,1.95,2.19,2.43,4.13,1.7,10.34-.97,12.77-2.19,2.19-1.09,4.13-3.16,4.13-5.35V31.98l7.17-4.38c1.22-.97,1.09-2.19.12-2.68"/>
  <path class="cls-1" d="m310.02,141.66h-17.39c-1.22,0-2.19-.97-2.19-2.19v-9.36c0-1.09.85-2.19,2.19-2.19h49.61c1.22,0,2.19.97,2.19,2.19v9.36c0,1.09-.85,2.19-2.19,2.19h-17.39v63.72c0,1.09-.97,2.19-2.19,2.19h-10.58c-1.09,0-2.19-.97-2.19-2.19v-63.72h.12Z"/>
  <path class="cls-1" d="m464.69,126.82c22.74,0,40.86,18.24,40.86,40.98s-18.12,40.73-40.86,40.73-40.73-18.12-40.73-40.73,18.12-40.98,40.73-40.98m0,67c14.35,0,26.14-11.67,26.14-26.02s-11.79-26.26-26.14-26.26-26.02,11.92-26.02,26.26c.12,14.35,11.79,26.02,26.02,26.02"/>
  <path class="cls-1" d="m506.28,197.47l5.96-6.08c1.22-1.09,2.43-.85,3.4.12,1.46,1.58,3.77,3.65,7.54,3.65,4.38,0,9.12-3.65,9.12-11.43v-53.62c0-1.09.85-2.19,2.19-2.19h10.7c1.22,0,2.19.97,2.19,2.19v53.62c0,15.81-10.58,24.93-23.83,24.93-9.85,0-15.32-5.96-17.27-8.27-.73-.97-.61-2.07,0-2.92"/>
  <path class="cls-1" d="m555.4,204.52l35.38-76.48c.36-.73.85-1.22,1.95-1.22h1.09c1.09,0,1.58.61,1.95,1.22l35.02,76.48c.73,1.46-.24,2.92-1.95,2.92h-9.85c-1.7,0-2.55-.73-3.28-2.31l-5.59-12.28h-33.93l-5.59,12.28c-.49,1.09-1.46,2.31-3.28,2.31h-9.85c-1.82,0-2.8-1.46-2.07-2.92m49-24.2l-11.31-25.05h-.36l-11.19,25.05h22.86Z"/>
  <path class="cls-1" d="m641,128.89c0-1.09.97-2.07,2.07-2.07h1.7c.85,0,1.58.36,2.19.97l46.33,49.25h.12v-46.94c0-1.09.85-2.19,2.19-2.19h10.46c1.22,0,2.19.97,2.19,2.19v76.48c0,1.09-.97,2.07-2.07,2.07h-1.58c-.85,0-1.58-.36-2.19-.97l-46.57-51.19h-.12v48.88c0,1.09-.85,2.19-2.19,2.19h-10.34c-1.22,0-2.19-.97-2.19-2.19v-76.48Z"/>
  <path class="cls-1" d="m398.91,175.34c9.85-4.01,16.78-12.52,16.78-22.98,0-13.5-11.19-24.44-24.81-24.44h-32.47c-1.22,0-2.19.97-2.19,2.19v75.15c0,1.09.85,2.19,2.19,2.19h10.46c1.09,0,2.19-.97,2.19-2.19l.12-63.72h18.48c6.08,0,11.19,4.74,11.31,10.82.12,6.44-5.23,11.79-11.19,11.79h-7.54c-2.07,0-3.4,2.19-2.43,4.01l19.09,38.18c.24.49.85.97,1.82.97h11.92c1.95,0,2.68-1.82,1.95-3.28l-15.69-28.7Z"/>
  <path class="cls-1" d="m309.9,222.76c0-.36.36-.73.73-.73h9c4.62,0,8.27,3.16,8.27,7.3,0,3.04-2.43,5.35-4.38,6.2,2.07.73,5.11,2.8,5.11,6.44,0,4.38-3.77,7.54-8.51,7.54h-9.48c-.49,0-.73-.36-.73-.73v-26.02Zm9.24,10.82c1.95,0,3.4-1.58,3.4-3.53s-1.34-3.28-3.4-3.28h-4.26v6.93h4.26v-.12Zm.61,11.31c1.95,0,3.53-1.58,3.53-3.53s-1.95-3.4-4.01-3.4h-4.26v7.05h4.74v-.12Z"/>
  <path class="cls-1" d="m333.73,248.54l12.28-26.51c.12-.24.36-.49.73-.49h.36c.36,0,.61.24.61.49l12.16,26.51c.24.49-.12.97-.73.97h-3.4c-.61,0-.85-.24-1.09-.73l-1.95-4.26h-11.79l-1.95,4.26c-.12.36-.49.73-1.09.73h-3.4c-.61,0-.97-.49-.73-.97m17.02-8.39l-4.01-8.63h-.12l-3.89,8.63h8.03Z"/>
  <path class="cls-1" d="m368.02,226.78h-5.96c-.49,0-.73-.36-.73-.73v-3.28c0-.36.36-.73.73-.73h17.14c.49,0,.73.36.73.73v3.28c0,.36-.36.73-.73.73h-5.96v22.01c0,.36-.36.73-.73.73h-3.65c-.36,0-.73-.36-.73-.73v-22.01h-.12Z"/>
  <path class="cls-1" d="m391.73,226.78h-6.08c-.49,0-.73-.36-.73-.73v-3.28c0-.36.36-.73.73-.73h17.14c.49,0,.73.36.73.73v3.28c0,.36-.36.73-.73.73h-5.96v22.01c0,.36-.36.73-.73.73h-3.65c-.36,0-.73-.36-.73-.73v-22.01Z"/>
  <path class="cls-1" d="m411.68,222.76c0-.36.36-.73.73-.73h16.05c.49,0,.73.36.73.73v3.28c0,.36-.36.73-.73.73h-11.67v6.44h9.73c.36,0,.73.36.73.73v3.28c0,.49-.36.73-.73.73h-9.73v6.93h11.67c.49,0,.73.36.73.73v3.28c0,.36-.36.73-.73.73h-16.05c-.49,0-.73-.36-.73-.73v-26.14Z"/>
  <path class="cls-1" d="m437.94,222.76c0-.36.36-.73.73-.73h11.19c4.74,0,8.51,3.77,8.51,8.51,0,3.65-2.43,6.57-5.84,7.9l5.35,9.97c.24.49,0,1.09-.73,1.09h-4.13c-.36,0-.61-.24-.61-.36l-5.23-10.46h-4.38v9.97c0,.36-.36.73-.73.73h-3.65c-.49,0-.73-.36-.73-.73v-25.9h.24Zm11.55,11.79c2.07,0,3.89-1.82,3.89-4.01,0-2.07-1.82-3.77-3.89-3.77h-6.44v7.78h6.44Z"/>
  <path class="cls-1" d="m471.74,236.38l-9-13.13c-.36-.49,0-1.09.61-1.09h4.01c.36,0,.49.24.61.36l6.32,9,6.32-9c.12-.12.36-.36.61-.36h4.01c.61,0,.97.61.61,1.09l-9.12,13.13v12.52c0,.36-.36.73-.73.73h-3.65c-.49,0-.73-.36-.73-.73v-12.52h.12Z"/>
  <path class="cls-1" d="m518.19,221.67c4.01,0,6.81,1.22,9.48,3.65.36.36.36.73,0,1.09l-2.43,2.43c-.24.36-.73.36-.97,0-1.7-1.46-3.89-2.31-6.08-2.31-4.99,0-8.75,4.26-8.75,9.12s3.77,9.12,8.75,9.12c2.31,0,4.38-.85,5.96-2.19.36-.24.73-.24.97,0l2.43,2.55c.36.24.24.73,0,1.09-2.68,2.55-6.08,3.77-9.61,3.77-7.9,0-14.23-6.2-14.23-14.11.24-7.9,6.57-14.23,14.47-14.23"/>
  <path class="cls-1" d="m546.4,221.67c7.9,0,14.11,6.32,14.11,14.23s-6.32,14.11-14.11,14.11-14.11-6.2-14.11-14.11,6.32-14.23,14.11-14.23m0,23.22c4.99,0,9-4.01,9-9s-4.13-9.12-9-9.12-9,4.13-9,9.12c0,4.86,4.13,9,9,9"/>
  <path class="cls-1" d="m570.24,222.28c0-.36.24-.61.73-.61h.61c.36,0,.61.12.61.36l8.63,18.6h.12l8.63-18.6c.12-.24.36-.36.73-.36h.61c.49,0,.73.24.73.61l4.62,26.39c.12.61-.24.85-.73.85h-3.53c-.36,0-.61-.36-.73-.61l-2.31-14.96h-.12l-6.93,15.44c-.12.24-.36.49-.73.49h-.73c-.36,0-.61-.24-.61-.49l-6.93-15.44h-.12l-2.31,14.96c0,.24-.36.61-.73.61h-3.53c-.49,0-.85-.36-.73-.85l4.74-26.39Z"/>
  <path class="cls-1" d="m604.04,222.76c0-.36.36-.73.73-.73h9.24c4.86,0,8.75,3.89,8.75,8.63s-4.01,8.88-8.75,8.88h-4.86v9.24c0,.36-.36.73-.73.73h-3.65c-.49,0-.73-.36-.73-.73v-26.02Zm9.61,12.04c2.19,0,4.01-1.82,4.01-4.13,0-2.19-1.82-3.77-4.01-3.77h-4.62v7.9h4.62Z"/>
  <path class="cls-1" d="m624.47,248.54l12.28-26.51c.12-.24.36-.49.73-.49h.36c.36,0,.61.24.61.49l12.16,26.51c.24.49-.12.97-.73.97h-3.4c-.61,0-.85-.24-1.09-.73l-1.95-4.26h-11.79l-1.95,4.26c-.12.36-.49.73-1.09.73h-3.4c-.61,0-.85-.49-.73-.97m17.02-8.39l-3.89-8.63h-.12l-3.89,8.63h7.9Z"/>
  <path class="cls-1" d="m656.57,222.4c0-.36.36-.73.73-.73h.97l16.29,17.39h0v-16.29c0-.36.36-.73.73-.73h3.65c.36,0,.73.36.73.73v26.51c0,.36-.36.73-.73.73h-.97l-16.29-18.12h0v16.9c0,.36-.36.73-.73.73h-3.53c-.36,0-.73-.36-.73-.73v-26.39h-.12Z"/>
  <path class="cls-1" d="m693.78,236.38l-9-13.13c-.36-.49,0-1.09.61-1.09h4.01c.36,0,.49.24.61.36l6.32,9,6.32-9c.12-.12.36-.36.61-.36h4.01c.61,0,.97.61.61,1.09l-9.12,13.13v12.52c0,.36-.36.73-.73.73h-3.65c-.49,0-.73-.36-.73-.73v-12.52h.12Z"/>
  <path class="cls-1" d="m723.2,128.04c3.65,0,6.57,2.92,6.57,6.57s-2.92,6.57-6.57,6.57-6.57-2.92-6.57-6.57c0-3.65,2.92-6.57,6.57-6.57m0,11.67c2.8,0,5.11-2.31,5.11-5.11s-2.31-5.11-5.11-5.11-5.11,2.31-5.11,5.11c0,2.8,2.31,5.11,5.11,5.11m-2.43-8.15c0-.24.12-.36.36-.36h2.8c1.09,0,2.19.85,2.19,2.31,0,1.22-.73,1.7-1.34,2.07l.85,1.95c.12.24,0,.49-.36.49h-.97c-.12,0-.24-.12-.36-.24l-.85-2.07h-.97v1.95c0,.24-.12.36-.36.36h-.85c-.24,0-.36-.12-.36-.36v-6.08h.24Zm2.92,2.68c.49,0,.73-.36.73-.73,0-.49-.36-.73-.73-.73h-1.46v1.46h1.46Z"/>
</svg>

<?xml version="1.0" encoding="UTF-8" standalone="no"?>
<!DOCTYPE svg PUBLIC "-//W3C//DTD SVG 1.1//EN" "http://www.w3.org/Graphics/SVG/1.1/DTD/svg11.dtd">
<svg width="100%" height="100%" viewBox="0 0 730 250" version="1.1" xmlns="http://www.w3.org/2000/svg" xmlns:xlink="http://www.w3.org/1999/xlink" xml:space="preserve" xmlns:serif="http://www.serif.com/" style="fill-rule:evenodd;clip-rule:evenodd;stroke-linejoin:round;stroke-miterlimit:2;">
    <path d="M332.15,24.93C293.97,5.11 239.37,10.34 195.36,28.58C194.14,29.07 190.62,40.62 189.52,41.1L193.78,19.94C195.85,9.6 187.7,-0 176.88,-0L2.14,-0C-0.41,0 0.32,1.95 0.44,2.19C2.87,8.03 17.83,25.66 53.21,29.18C53.45,29.79 46.77,30.27 42.27,30.4C41.66,30.4 41.18,31.13 41.54,31.62C46.4,38.92 62.58,51.56 92.25,53.51C92.49,54 84.95,54.73 81.06,54.85C80.45,54.85 80.09,55.46 80.33,56.07C84.34,63.37 94.31,74.19 118.02,77.59C118.26,77.59 118.14,77.83 117.9,77.83C112.06,77.95 106.96,77.59 102.46,76.86C102.22,76.86 102.1,76.86 101.85,76.98C87.74,86.46 75.46,95.71 69.14,101.18C66.95,103.13 67.56,105.56 70.6,105.92L88.11,107.87C89.33,107.99 89.69,109.57 88.72,110.3C49.32,139.11 14.06,185.19 0.32,205.37C-0.77,206.95 1.17,208.9 2.87,207.92C50.41,180.8 73.4,171.81 119.12,154.42C121.55,153.57 121.31,150.29 118.76,149.92L106.97,147.49C105.39,147.25 104.9,145.3 106.24,144.45C171.66,103.35 245.71,104.81 250.33,109.8C250.82,110.29 250.94,111.14 250.57,111.75C245.58,122.21 232.33,136.8 232.33,136.8L222.85,137.29C221.88,137.29 221.03,138.02 220.78,138.99C217.98,150.42 220.78,155.41 222.6,157.96C223.33,158.93 224.55,159.05 225.52,158.32C233.67,152.36 236.71,148.47 236.71,148.47L277.81,116.98C279.27,115.76 279.76,114.3 279.15,112.72C270.52,88.77 238.17,72.47 238.17,72.47C251.3,54.23 276.11,51.92 281.58,53.99C292.28,57.88 305.78,96.91 305.78,96.91C306.14,98 306.87,98.86 307.97,99.34C312.1,101.04 318.31,98.37 320.74,97.15C322.93,96.06 324.87,93.99 324.87,91.8L324.87,31.98L332.04,27.6C333.26,26.63 333.13,25.41 332.16,24.92" style="fill:rgb(154,154,154);fill-rule:nonzero;"/>
    <path d="M310.02,141.66L292.63,141.66C291.41,141.66 290.44,140.69 290.44,139.47L290.44,130.11C290.44,129.02 291.29,127.92 292.63,127.92L342.24,127.92C343.46,127.92 344.43,128.89 344.43,130.11L344.43,139.47C344.43,140.56 343.58,141.66 342.24,141.66L324.85,141.66L324.85,205.38C324.85,206.47 323.88,207.57 322.66,207.57L312.08,207.57C310.99,207.57 309.89,206.6 309.89,205.38L309.89,141.66L310.02,141.66Z" style="fill:rgb(154,154,154);fill-rule:nonzero;"/>
    <path d="M464.69,126.82C487.43,126.82 505.55,145.06 505.55,167.8C505.55,190.54 487.43,208.53 464.69,208.53C441.95,208.53 423.96,190.41 423.96,167.8C423.96,145.19 442.08,126.82 464.69,126.82M464.69,193.82C479.04,193.82 490.83,182.15 490.83,167.8C490.83,153.45 479.04,141.54 464.69,141.54C450.34,141.54 438.67,153.46 438.67,167.8C438.79,182.15 450.46,193.82 464.69,193.82" style="fill:rgb(154,154,154);fill-rule:nonzero;"/>
    <path d="M506.28,197.47L512.24,191.39C513.46,190.3 514.67,190.54 515.64,191.51C517.1,193.09 519.41,195.16 523.18,195.16C527.56,195.16 532.3,191.51 532.3,183.73L532.3,130.11C532.3,129.02 533.15,127.92 534.49,127.92L545.19,127.92C546.41,127.92 547.38,128.89 547.38,130.11L547.38,183.73C547.38,199.54 536.8,208.66 523.55,208.66C513.7,208.66 508.23,202.7 506.28,200.39C505.55,199.42 505.67,198.32 506.28,197.47" style="fill:rgb(154,154,154);fill-rule:nonzero;"/>
    <path d="M555.4,204.52L590.78,128.04C591.14,127.31 591.63,126.82 592.73,126.82L593.82,126.82C594.91,126.82 595.4,127.43 595.77,128.04L630.79,204.52C631.52,205.98 630.55,207.44 628.84,207.44L618.99,207.44C617.29,207.44 616.44,206.71 615.71,205.13L610.12,192.85L576.19,192.85L570.6,205.13C570.11,206.22 569.14,207.44 567.32,207.44L557.47,207.44C555.65,207.44 554.67,205.98 555.4,204.52M604.4,180.32L593.09,155.27L592.73,155.27L581.54,180.32L604.4,180.32Z" style="fill:rgb(154,154,154);fill-rule:nonzero;"/>
    <path d="M641,128.89C641,127.8 641.97,126.82 643.07,126.82L644.77,126.82C645.62,126.82 646.35,127.18 646.96,127.79L693.29,177.04L693.41,177.04L693.41,130.1C693.41,129.01 694.26,127.91 695.6,127.91L706.06,127.91C707.28,127.91 708.25,128.88 708.25,130.1L708.25,206.58C708.25,207.67 707.28,208.65 706.18,208.65L704.6,208.65C703.75,208.65 703.02,208.29 702.41,207.68L655.84,156.49L655.72,156.49L655.72,205.37C655.72,206.46 654.87,207.56 653.53,207.56L643.19,207.56C641.97,207.56 641,206.59 641,205.37L641,128.89Z" style="fill:rgb(154,154,154);fill-rule:nonzero;"/>
    <path d="M398.91,175.34C408.76,171.33 415.69,162.82 415.69,152.36C415.69,138.86 404.5,127.92 390.88,127.92L358.41,127.92C357.19,127.92 356.22,128.89 356.22,130.11L356.22,205.26C356.22,206.35 357.07,207.45 358.41,207.45L368.87,207.45C369.96,207.45 371.06,206.48 371.06,205.26L371.18,141.54L389.66,141.54C395.74,141.54 400.85,146.28 400.97,152.36C401.09,158.8 395.74,164.15 389.78,164.15L382.24,164.15C380.17,164.15 378.84,166.34 379.81,168.16L398.9,206.34C399.14,206.83 399.75,207.31 400.72,207.31L412.64,207.31C414.59,207.31 415.32,205.49 414.59,204.03L398.9,175.33L398.91,175.34Z" style="fill:rgb(154,154,154);fill-rule:nonzero;"/>
    <path d="M309.9,222.76C309.9,222.4 310.26,222.03 310.63,222.03L319.63,222.03C324.25,222.03 327.9,225.19 327.9,229.33C327.9,232.37 325.47,234.68 323.52,235.53C325.59,236.26 328.63,238.33 328.63,241.97C328.63,246.35 324.86,249.51 320.12,249.51L310.64,249.51C310.15,249.51 309.91,249.15 309.91,248.78L309.91,222.76L309.9,222.76ZM319.14,233.58C321.09,233.58 322.54,232 322.54,230.05C322.54,228.1 321.2,226.77 319.14,226.77L314.88,226.77L314.88,233.7L319.14,233.7L319.14,233.58ZM319.75,244.89C321.7,244.89 323.28,243.31 323.28,241.36C323.28,239.41 321.33,237.96 319.27,237.96L315.01,237.96L315.01,245.01L319.75,245.01L319.75,244.89Z" style="fill:rgb(154,154,154);fill-rule:nonzero;"/>
    <path d="M333.73,248.54L346.01,222.03C346.13,221.79 346.37,221.54 346.74,221.54L347.1,221.54C347.46,221.54 347.71,221.78 347.71,222.03L359.87,248.54C360.11,249.03 359.75,249.51 359.14,249.51L355.74,249.51C355.13,249.51 354.89,249.27 354.65,248.78L352.7,244.52L340.91,244.52L338.96,248.78C338.84,249.14 338.47,249.51 337.87,249.51L334.47,249.51C333.86,249.51 333.5,249.02 333.74,248.54M350.76,240.15L346.75,231.52L346.63,231.52L342.74,240.15L350.77,240.15L350.76,240.15Z" style="fill:rgb(154,154,154);fill-rule:nonzero;"/>
    <path d="M368.02,226.78L362.06,226.78C361.57,226.78 361.33,226.42 361.33,226.05L361.33,222.77C361.33,222.41 361.69,222.04 362.06,222.04L379.2,222.04C379.69,222.04 379.93,222.4 379.93,222.77L379.93,226.05C379.93,226.41 379.57,226.78 379.2,226.78L373.24,226.78L373.24,248.79C373.24,249.15 372.88,249.52 372.51,249.52L368.86,249.52C368.5,249.52 368.13,249.16 368.13,248.79L368.13,226.78L368.01,226.78L368.02,226.78Z" style="fill:rgb(154,154,154);fill-rule:nonzero;"/>
    <path d="M391.73,226.78L385.65,226.78C385.16,226.78 384.92,226.42 384.92,226.05L384.92,222.77C384.92,222.41 385.28,222.04 385.65,222.04L402.79,222.04C403.28,222.04 403.52,222.4 403.52,222.77L403.52,226.05C403.52,226.41 403.16,226.78 402.79,226.78L396.83,226.78L396.83,248.79C396.83,249.15 396.47,249.52 396.1,249.52L392.45,249.52C392.09,249.52 391.72,249.16 391.72,248.79L391.72,226.78L391.73,226.78Z" style="fill:rgb(154,154,154);fill-rule:nonzero;"/>
    <path d="M411.68,222.76C411.68,222.4 412.04,222.03 412.41,222.03L428.46,222.03C428.95,222.03 429.19,222.39 429.19,222.76L429.19,226.04C429.19,226.4 428.83,226.77 428.46,226.77L416.79,226.77L416.79,233.21L426.52,233.21C426.88,233.21 427.25,233.57 427.25,233.94L427.25,237.22C427.25,237.71 426.89,237.95 426.52,237.95L416.79,237.95L416.79,244.88L428.46,244.88C428.95,244.88 429.19,245.24 429.19,245.61L429.19,248.89C429.19,249.25 428.83,249.62 428.46,249.62L412.41,249.62C411.92,249.62 411.68,249.26 411.68,248.89L411.68,222.75L411.68,222.76Z" style="fill:rgb(154,154,154);fill-rule:nonzero;"/>
    <path d="M437.94,222.76C437.94,222.4 438.3,222.03 438.67,222.03L449.86,222.03C454.6,222.03 458.37,225.8 458.37,230.54C458.37,234.19 455.94,237.11 452.53,238.44L457.88,248.41C458.12,248.9 457.88,249.5 457.15,249.5L453.02,249.5C452.66,249.5 452.41,249.26 452.41,249.14L447.18,238.68L442.8,238.68L442.8,248.65C442.8,249.01 442.44,249.38 442.07,249.38L438.42,249.38C437.93,249.38 437.69,249.02 437.69,248.65L437.69,222.75L437.93,222.75L437.94,222.76ZM449.49,234.55C451.56,234.55 453.38,232.73 453.38,230.54C453.38,228.47 451.56,226.77 449.49,226.77L443.05,226.77L443.05,234.55L449.49,234.55Z" style="fill:rgb(154,154,154);fill-rule:nonzero;"/>
    <path d="M471.74,236.38L462.74,223.25C462.38,222.76 462.74,222.16 463.35,222.16L467.36,222.16C467.72,222.16 467.85,222.4 467.97,222.52L474.29,231.52L480.61,222.52C480.73,222.4 480.97,222.16 481.22,222.16L485.23,222.16C485.84,222.16 486.2,222.77 485.84,223.25L476.72,236.38L476.72,248.9C476.72,249.26 476.36,249.63 475.99,249.63L472.34,249.63C471.85,249.63 471.61,249.27 471.61,248.9L471.61,236.38L471.74,236.38Z" style="fill:rgb(154,154,154);fill-rule:nonzero;"/>
    <path d="M518.19,221.67C522.2,221.67 525,222.89 527.67,225.32C528.03,225.68 528.03,226.05 527.67,226.41L525.24,228.84C525,229.2 524.51,229.2 524.27,228.84C522.57,227.38 520.38,226.53 518.19,226.53C513.2,226.53 509.44,230.79 509.44,235.65C509.44,240.51 513.21,244.77 518.19,244.77C520.5,244.77 522.57,243.92 524.15,242.58C524.51,242.34 524.88,242.34 525.12,242.58L527.55,245.13C527.91,245.37 527.79,245.86 527.55,246.22C524.87,248.77 521.47,249.99 517.94,249.99C510.04,249.99 503.71,243.79 503.71,235.88C503.95,227.98 510.28,221.65 518.18,221.65" style="fill:rgb(154,154,154);fill-rule:nonzero;"/>
    <path d="M546.4,221.67C554.3,221.67 560.51,227.99 560.51,235.9C560.51,243.81 554.19,250.01 546.4,250.01C538.61,250.01 532.29,243.81 532.29,235.9C532.29,227.99 538.61,221.67 546.4,221.67M546.4,244.89C551.39,244.89 555.4,240.88 555.4,235.89C555.4,230.9 551.27,226.77 546.4,226.77C541.53,226.77 537.4,230.9 537.4,235.89C537.4,240.75 541.53,244.89 546.4,244.89" style="fill:rgb(154,154,154);fill-rule:nonzero;"/>
    <path d="M570.24,222.28C570.24,221.92 570.48,221.67 570.97,221.67L571.58,221.67C571.94,221.67 572.19,221.79 572.19,222.03L580.82,240.63L580.94,240.63L589.57,222.03C589.69,221.79 589.93,221.67 590.3,221.67L590.91,221.67C591.4,221.67 591.64,221.91 591.64,222.28L596.26,248.67C596.38,249.28 596.02,249.52 595.53,249.52L592,249.52C591.64,249.52 591.39,249.16 591.27,248.91L588.96,233.95L588.84,233.95L581.91,249.39C581.79,249.63 581.55,249.88 581.18,249.88L580.45,249.88C580.09,249.88 579.84,249.64 579.84,249.39L572.91,233.95L572.79,233.95L570.48,248.91C570.48,249.15 570.12,249.52 569.75,249.52L566.22,249.52C565.73,249.52 565.37,249.16 565.49,248.67L570.23,222.28L570.24,222.28Z" style="fill:rgb(154,154,154);fill-rule:nonzero;"/>
    <path d="M604.04,222.76C604.04,222.4 604.4,222.03 604.77,222.03L614.01,222.03C618.87,222.03 622.76,225.92 622.76,230.66C622.76,235.4 618.75,239.54 614.01,239.54L609.15,239.54L609.15,248.78C609.15,249.14 608.79,249.51 608.42,249.51L604.77,249.51C604.28,249.51 604.04,249.15 604.04,248.78L604.04,222.76ZM613.65,234.8C615.84,234.8 617.66,232.98 617.66,230.67C617.66,228.48 615.84,226.9 613.65,226.9L609.03,226.9L609.03,234.8L613.65,234.8Z" style="fill:rgb(154,154,154);fill-rule:nonzero;"/>
    <path d="M624.47,248.54L636.75,222.03C636.87,221.79 637.11,221.54 637.48,221.54L637.84,221.54C638.2,221.54 638.45,221.78 638.45,222.03L650.61,248.54C650.85,249.03 650.49,249.51 649.88,249.51L646.48,249.51C645.87,249.51 645.63,249.27 645.39,248.78L643.44,244.52L631.65,244.52L629.7,248.78C629.58,249.14 629.21,249.51 628.61,249.51L625.21,249.51C624.6,249.51 624.36,249.02 624.48,248.54M641.5,240.15L637.61,231.52L637.49,231.52L633.6,240.15L641.5,240.15Z" style="fill:rgb(154,154,154);fill-rule:nonzero;"/>
    <path d="M656.57,222.4C656.57,222.04 656.93,221.67 657.3,221.67L658.27,221.67L674.56,239.06L674.56,222.77C674.56,222.41 674.92,222.04 675.29,222.04L678.94,222.04C679.3,222.04 679.67,222.4 679.67,222.77L679.67,249.28C679.67,249.64 679.31,250.01 678.94,250.01L677.97,250.01L661.68,231.89L661.68,248.79C661.68,249.15 661.32,249.52 660.95,249.52L657.42,249.52C657.06,249.52 656.69,249.16 656.69,248.79L656.69,222.4L656.57,222.4Z" style="fill:rgb(154,154,154);fill-rule:nonzero;"/>
    <path d="M693.78,236.38L684.78,223.25C684.42,222.76 684.78,222.16 685.39,222.16L689.4,222.16C689.76,222.16 689.89,222.4 690.01,222.52L696.33,231.52L702.65,222.52C702.77,222.4 703.01,222.16 703.26,222.16L707.27,222.16C707.88,222.16 708.24,222.77 707.88,223.25L698.76,236.38L698.76,248.9C698.76,249.26 698.4,249.63 698.03,249.63L694.38,249.63C693.89,249.63 693.65,249.27 693.65,248.9L693.65,236.38L693.78,236.38Z" style="fill:rgb(154,154,154);fill-rule:nonzero;"/>
    <path d="M723.2,128.04C726.85,128.04 729.77,130.96 729.77,134.61C729.77,138.26 726.85,141.18 723.2,141.18C719.55,141.18 716.63,138.26 716.63,134.61C716.63,130.96 719.55,128.04 723.2,128.04M723.2,139.71C726,139.71 728.31,137.4 728.31,134.6C728.31,131.8 726,129.49 723.2,129.49C720.4,129.49 718.09,131.8 718.09,134.6C718.09,137.4 720.4,139.71 723.2,139.71M720.77,131.56C720.77,131.32 720.89,131.2 721.13,131.2L723.93,131.2C725.02,131.2 726.12,132.05 726.12,133.51C726.12,134.73 725.39,135.21 724.78,135.58L725.63,137.53C725.75,137.77 725.63,138.02 725.27,138.02L724.3,138.02C724.18,138.02 724.06,137.9 723.94,137.78L723.09,135.71L722.12,135.71L722.12,137.66C722.12,137.9 722,138.02 721.76,138.02L720.91,138.02C720.67,138.02 720.55,137.9 720.55,137.66L720.55,131.58L720.79,131.58L720.77,131.56ZM723.69,134.24C724.18,134.24 724.42,133.88 724.42,133.51C724.42,133.02 724.06,132.78 723.69,132.78L722.23,132.78L722.23,134.24L723.69,134.24Z" style="fill:rgb(154,154,154);fill-rule:nonzero;"/>
</svg>
